X:160
T:Lady Gordon's* (reel)
T:Matt Peoples'
B:CRE2.256 (gan ainm)
F:file ID: cre.2/160lady_g
S:Tommy Peoples
Q:180
L:1/8
M:4/4
R:reel
K:D
FABc d2BA|dBBA FE E2|FABc d2BA|fgfe dBBA|
FABc d2BA|d2BA FE E2|FABc d2 BA|fgfe dBB||
e|add2 Adfb|adfa beef|"11"add2 abaf|egfe dBBe|
add2 Adfb|adfa beef|g2 ge fefd|egfe dBBA||
P: Alternate m 11: |afdf abaf|

%%%

